img/orders.svg

<svg width="24" height="24" viewBox="0 0 24 24" fill="none" xmlns="http://www.w3.org/2000/svg">
<g clip-path="url(#clip0_401_1483)">
<path opacity="0.4" d="M7.4812 9.90914H2.9812C2.83202 9.90914 2.68894 9.84987 2.58345 9.74438C2.47796 9.63889 2.4187 9.49582 2.4187 9.34664V4.84664C2.4187 4.69745 2.47796 4.55438 2.58345 4.44889C2.68894 4.3434 2.83202 4.28414 2.9812 4.28414C3.13039 4.28414 3.27346 4.3434 3.37895 4.44889C3.48444 4.55438 3.5437 4.69745 3.5437 4.84664V7.98726L5.76558 5.76539C7.42212 4.11775 9.66354 3.19287 12 3.19287C14.3364 3.19287 16.5778 4.11775 18.2343 5.76539C18.338 5.87211 18.396 6.01504 18.396 6.16382C18.396 6.31261 18.338 6.45553 18.2343 6.56226C18.1827 6.61585 18.1208 6.65848 18.0524 6.6876C17.9839 6.71672 17.9103 6.73173 17.8359 6.73173C17.7615 6.73173 17.6879 6.71672 17.6194 6.6876C17.5509 6.65848 17.4891 6.61585 17.4374 6.56226C15.9944 5.12188 14.0388 4.31291 12 4.31291C9.96107 4.31291 8.00549 5.12188 6.56245 6.56226L4.34058 8.78414H7.4812C7.63039 8.78414 7.77346 8.8434 7.87895 8.94889C7.98444 9.05438 8.0437 9.19745 8.0437 9.34664C8.0437 9.49582 7.98444 9.63889 7.87895 9.74438C7.77346 9.84987 7.63039 9.90914 7.4812 9.90914ZM21.0187 14.0904H16.5187C16.3695 14.0904 16.2264 14.1496 16.121 14.2551C16.0155 14.3606 15.9562 14.5037 15.9562 14.6529C15.9562 14.8021 16.0155 14.9451 16.121 15.0506C16.2264 15.1561 16.3695 15.2154 16.5187 15.2154H19.6593L17.4374 17.4373C15.9944 18.8776 14.0388 19.6866 12 19.6866C9.96107 19.6866 8.00549 18.8776 6.56245 17.4373C6.51085 17.3837 6.44896 17.341 6.3805 17.3119C6.31204 17.2828 6.23841 17.2678 6.16401 17.2678C6.08962 17.2678 6.01599 17.2828 5.94752 17.3119C5.87906 17.341 5.81718 17.3837 5.76558 17.4373C5.66192 17.544 5.60393 17.6869 5.60393 17.8357C5.60393 17.9845 5.66192 18.1274 5.76558 18.2341C7.42092 19.884 9.66278 20.8105 12 20.8105C14.3371 20.8105 16.579 19.884 18.2343 18.2341L20.4562 16.0123V19.1529C20.4562 19.3021 20.5155 19.4451 20.621 19.5506C20.7264 19.6561 20.8695 19.7154 21.0187 19.7154C21.1679 19.7154 21.311 19.6561 21.4164 19.5506C21.5219 19.4451 21.5812 19.3021 21.5812 19.1529V14.6529C21.5812 14.5037 21.5219 14.3606 21.4164 14.2551C21.311 14.1496 21.1679 14.0904 21.0187 14.0904V14.0904Z" fill="#2E2F30"/>
<path fill-rule="evenodd" clip-rule="evenodd" d="M14.5856 10.2389C14.5012 9.4989 13.8569 9.26154 13.0478 9.20486L13.0298 8.17655L12.4037 8.18759L12.4212 9.18879C12.2568 9.19164 12.0887 9.19783 11.9216 9.20408L11.9041 8.19625L11.2786 8.20715L11.2963 9.23516C11.1608 9.2403 11.0278 9.24514 10.898 9.24749L10.8979 9.2443L10.0346 9.25907L10.0464 9.92757C10.0464 9.92757 10.5085 9.91069 10.5009 9.91934C10.7545 9.91499 10.8397 10.0607 10.8658 10.1873L10.8863 11.3588C10.9038 11.3586 10.9266 11.3589 10.9525 11.362L10.8865 11.3632L10.9149 13.0043C10.9051 13.0843 10.8605 13.2123 10.6833 13.2157C10.6915 13.2227 10.2283 13.2236 10.2283 13.2236L10.1171 13.9734L10.9318 13.9591C11.0238 13.9576 11.1149 13.957 11.205 13.9564L11.205 13.9564C11.2634 13.956 11.3213 13.9557 11.3788 13.955L11.3973 14.9952L12.0225 14.9844L12.0047 13.9553C12.1763 13.9559 12.3425 13.9544 12.5046 13.9514L12.5223 14.9757L13.1482 14.9647L13.1302 13.9265C14.1815 13.8478 14.9135 13.5698 14.9875 12.5803C15.0474 11.7833 14.6671 11.4347 14.0672 11.3015C14.4268 11.1101 14.648 10.7805 14.5854 10.239L14.5856 10.2389ZM13.7486 12.478C13.7612 13.1914 12.6401 13.1952 12.1276 13.197L12.1275 13.197C12.0817 13.1971 12.0407 13.1973 12.0058 13.1979L11.9819 11.8199C12.0245 11.8192 12.0763 11.8171 12.135 11.8147C12.6599 11.7931 13.7356 11.7489 13.7487 12.478L13.7486 12.478ZM12.0739 11.1886C12.5018 11.1882 13.4345 11.1871 13.4233 10.539C13.4118 9.87599 12.5152 9.91548 12.0773 9.93477C12.0281 9.93694 11.9846 9.93885 11.9489 9.93948L11.9707 11.1892C12.0002 11.1887 12.0349 11.1887 12.0739 11.1886Z" fill="#2E2F30"/>
</g>
<defs>
<clipPath id="clip0_401_1483">
<rect width="24" height="24" fill="white"/>
</clipPath>
</defs>
</svg>

<svg width="24" height="24" fill="none" xmlns="http://www.w3.org/2000/svg"><g clip-path="url(#a)" fill="#2E2F30"><path opacity=".4" d="M7.481 9.91h-4.5a.563.563 0 0 1-.562-.563v-4.5a.562.562 0 1 1 1.125 0v3.14l2.222-2.222a8.84 8.84 0 0 1 12.468 0 .572.572 0 0 1-.182.923.553.553 0 0 1-.615-.126 7.697 7.697 0 0 0-10.875 0L4.341 8.784h3.14a.562.562 0 1 1 0 1.125zm13.538 4.18h-4.5a.562.562 0 1 0 0 1.125h3.14l-2.222 2.222a7.697 7.697 0 0 1-10.875 0 .553.553 0 0 0-.796 0 .572.572 0 0 0 0 .797 8.831 8.831 0 0 0 12.468 0l2.222-2.222v3.14a.562.562 0 0 0 1.125 0v-4.5a.563.563 0 0 0-.562-.562z"/><path fill-rule="evenodd" clip-rule="evenodd" d="M14.586 10.239c-.085-.74-.73-.977-1.538-1.034l-.018-1.028-.626.01.017 1.002c-.164.003-.332.009-.5.015l-.017-1.008-.625.011.017 1.028c-.135.005-.268.01-.398.012v-.003l-.863.015.011.669s.463-.017.455-.009c.254-.004.339.142.365.268l.02 1.172c.018 0 .04 0 .067.003l-.066.001.028 1.641c-.01.08-.054.208-.232.212.008.007-.455.008-.455.008l-.11.75.814-.015.273-.003.174-.001.018 1.04.626-.01-.018-1.03c.171 0 .337 0 .5-.004l.017 1.025.626-.011-.018-1.038c1.051-.08 1.784-.357 1.857-1.347.06-.797-.32-1.145-.92-1.278.36-.192.581-.521.518-1.063zm-.837 2.239c.012.713-1.109.717-1.621.719h-.122l-.024-1.377c.043 0 .094-.003.153-.005.525-.022 1.6-.066 1.614.663zm-1.675-1.29c.428 0 1.36 0 1.35-.649-.012-.663-.909-.624-1.347-.604-.049.002-.092.004-.128.004l.022 1.25h.103z"/></g><defs><clipPath id="a"><path fill="#fff" d="M0 0h24v24H0z"/></clipPath></defs></svg>
